packages/kaspersky-hexa-ui-icons/src/iconsSVGs/16/Response1.svg

<svg width="16" height="16" viewBox="0 0 16 16" fill="none" xmlns="http://www.w3.org/2000/svg">
<path fill-rule="evenodd" clip-rule="evenodd" d="M12.4801 5.64014C14.2529 5.64014 15.6901 7.0773 15.6901 8.85014C15.6901 10.623 14.2529 12.0601 12.4801 12.0601C10.9299 12.0601 9.63641 10.9613 9.33591 9.50014H5.07883L5.88921 10.3105C6.14305 10.5644 6.14305 10.9759 5.88921 11.2298C5.85748 11.2615 5.82328 11.2892 5.78724 11.313C5.53494 11.4796 5.19208 11.4519 4.96997 11.2298L3.04997 9.30976L3.03826 9.29774C2.79619 9.04309 2.80009 8.64039 3.04997 8.39052L4.96997 6.47052C5.22381 6.21668 5.63537 6.21668 5.88921 6.47052C6.14305 6.72436 6.14305 7.13591 5.88921 7.38976L5.07883 8.20014H9.33591C9.63642 6.73893 10.9299 5.64014 12.4801 5.64014ZM14.3901 8.85014C14.3901 7.79527 13.5349 6.94014 12.4801 6.94014C11.4252 6.94014 10.5701 7.79527 10.5701 8.85014C10.5701 9.905 11.4252 10.7601 12.4801 10.7601C13.5349 10.7601 14.3901 9.905 14.3901 8.85014Z" fill="black"/>
<path d="M3.97466 5.67208L2.17546 7.47128C1.41393 8.2328 1.41393 9.46747 2.17546 10.229L3.97466 12.0282C3.82615 12.0492 3.67438 12.0601 3.52006 12.0601C1.74722 12.0601 0.310059 10.623 0.310059 8.85014C0.310059 7.0773 1.74722 5.64014 3.52006 5.64014C3.67438 5.64014 3.82615 5.65103 3.97466 5.67208Z" fill="black"/>
</svg>

<svg xmlns="http://www.w3.org/2000/svg" width="16" height="16" fill="none" viewBox="0 0 16 16"><path fill="#000" fill-rule="evenodd" d="M12.4801 5.6401c1.7728 0 3.21 1.4372 3.21 3.21s-1.4372 3.21-3.21 3.21c-1.5502 0-2.8437-1.0988-3.1442-2.56H5.079l.8103.8104a.65.65 0 0 1-.9192.9193l-1.92-1.92-.0117-.012a.65.65 0 0 1 .0117-.9073l1.92-1.92a.65.65 0 0 1 .9192.9193L5.0788 8.2H9.336c.3005-1.4612 1.594-2.56 3.1442-2.56m1.91 3.21c0-1.0548-.8552-1.91-1.91-1.91s-1.91.8552-1.91 1.91.8551 1.91 1.91 1.91 1.91-.8551 1.91-1.91" clip-rule="evenodd"/><path fill="#000" d="M3.9747 5.672 2.1755 7.4714c-.7616.7615-.7616 1.9962 0 2.7577l1.7992 1.7992a3.25 3.25 0 0 1-.4546.0319c-1.7729 0-3.21-1.4371-3.21-3.21s1.4371-3.21 3.21-3.21c.1543 0 .306.011.4546.032"/></svg>
